X:2645
T:Cara's Song
R:Air
C:Ed Reavy
M:2/4
L:1/16
Z:Joe Reavy
N:An air Ed wrote for his granddaughter 
N:Cara.  Cara is autistic, but has a 
N:special fondness for music.  
N:Maybe someday his music will touch her, too.
K:G
D2EF G2FG|A2FD B2GE|c2AG F2A,B,|C2B,A, B,2B,C|
D2B,D G2FG| A2FD B2GE|c2AG F2EF|G>G G2Bc||
d2ed B>G|Ec cBAG (3F2D2F2|G2FG A2FD(3c2B2A2 B2Bc|
d2^cded B2G2|EccBAG (3F2D2B,2|C2B,C F2EF|G2>G/2 G6 z||


